icons/lines/music-playlist.svg

<svg xmlns="http://www.w3.org/2000/svg" width="24" height="24" viewBox="0 0 24 24" fill="none" stroke="currentColor" stroke-width="2" stroke-linecap="round" stroke-linejoin="round" >
  <path d="M17 22H7C4 22 2 20.5 2 17V12C2 8.5 4 7 7 7H17C20 7 22 8.5 22 12V17C22 20.5 20 22 17 22Z" stroke-miterlimit="10"/>
  <path d="M6 4.5H18" stroke-miterlimit="10"/>
  <path d="M9 2H15" stroke-miterlimit="10"/>
  <path d="M8.89001 19.11C9.64664 19.11 10.26 18.4966 10.26 17.74C10.26 16.9834 9.64664 16.37 8.89001 16.37C8.13338 16.37 7.52002 16.9834 7.52002 17.74C7.52002 18.4966 8.13338 19.11 8.89001 19.11Z"/>
  <path d="M15.2798 16.83V11.48C15.2798 10.34 14.5698 10.18 13.8398 10.38L11.0997 11.13C10.5997 11.27 10.2598 11.66 10.2598 12.23V13.18V13.82V17.74"/>
  <path d="M13.91 18.2C14.6667 18.2 15.2801 17.5866 15.2801 16.83C15.2801 16.0734 14.6667 15.46 13.91 15.46C13.1534 15.46 12.54 16.0734 12.54 16.83C12.54 17.5866 13.1534 18.2 13.91 18.2Z"/>
  <path d="M10.2598 13.83L15.2798 12.46"/>
  </svg>

<svg xmlns="http://www.w3.org/2000/svg" width="24" height="24" viewBox="0 0 24 24" fill="none" stroke="currentColor" stroke-width="2" stroke-linecap="round" stroke-linejoin="round">
  <path d="m10.26 13.83 5.02-1.37" />
  <path d="M10.26 17.74v-5.51c0-.57.34-.96.84-1.1l2.74-.75c.73-.2 1.44-.04 1.44 1.1v5.35" />
  <path d="M6 4.5h12" />
  <path d="M7 22c-3 0-5-1.5-5-5v-5c0-3.5 2-5 5-5h10c3 0 5 1.5 5 5v5c0 3.5-2 5-5 5z" />
  <path d="M9 2h6" />
  <circle cx="13.91" cy="16.83" r="1.37" />
  <circle cx="8.89" cy="17.74" r="1.37" />
</svg>
